!!!COM: Robert Schumann
!!!CNT: Deutscher
!!!TXO: Deutsche 
!!!OTL: Wehmut
!!!OPR: Liederkreis
!!!OPS: Opus 39
!!!ONM: No. 9
!!!LYR: Eichendorff
!!!ENC: Brian Bice
!!!YOR: Sa2mtliche Lieder, vol. 1, C.F. Peters
!!!ODT: 1840/
!!NB: Vocal melody and text only encoded.
**kern	**silbe
*clefG2	*
*k[f#c#g#d#]	*
*M3/4	*
=1	=1
2r;	.
8r	.
{8g#	{Ich
=2	=2
8a	kann
8g#	wohl
4.cc#	manch-
8b	-mal
=3	=3
(8.b	sin-
16a)	|
4g#}	-gen,}
8r	.
{8g#	{als
=4	=4
8f#	ob
8b	ich
4..cc#	fro2h-
16b	-lich
=5	=5
4b}	sei;}
4r	.
8r	.
{8f#	{doch
=6	=6
8g#	heim-
8g#	-lich
4.cc#	Tra2-
8b	-nen
=7	=7
(8.b	drin-
16a)	|
4g#}	-gen,}
8r	.
{8g#	{da
=8	=8
8f#	wird
8b	das
4..cc#	Herz
16b	mir
=9	=9
4b}	frei.}
4r	.
8r	.
{8f#	{Es
=10	=10
4.f#	las-
8g#	-sen
8a	Nach-
8cc#	-ti-
=11	=11
(8.b	-gal-
16a)	|
4g#}	-len,}
4r	.
=12	=12
{(4.f#	{spielt
8g#)	|
8a	drau-
8cc#	-ssen
=13	=13
8.b	Fru2h-
16a	-lings-
4.g#}	-luft,}
{8gn	{der
=14	=14
4.gn	Sehn-
8gn	-sucht
8.ee	Lied
16ddn	er-
=15	=15
4ddn	-schal-
4.cc#}	-len}
{8b	{aus
=16	=16
(4b	ih-
8a)	|
8a#	-res
8.b	Ker-
16gn	-kers
=17	=17
4f#}	Gruft.}
4r	.
8r	.
{8f#	{Da
=18	=18
8g#	lau-
8g#	-schen
4.cc#	al-
8b	-le
=19	=19
(8.b	Her-
16a)	|
4g#}	-zen,}
8r	.
{8g#	{und
=20	=20
8f#	al-
8b	-les
4..cc#	ist
16b	er-
=21	=21
4b}	-freut,}
4r	.
8r	.
{8a	{doch
=22	=22
4.g#	kei-
8g#	-ner
8.cc#	fu2hlt
16b	die
=23	=23
(8.b	Schmer-
16a)	|
4.g#}	-zen,}
{8f##	{im
=24	=24
8g#	Lied
8e	das
4.b	tie-
8a	-fe
=25	=25
4g#}	Leid.}
4r	.
4r	.
*-	*-
